!!!COM: Corelli, Arcangelo
!!!OTL: 
!!!ONM: Opus 3, No. 1
!!!OMV: 4
!!!CDT: 1653/2/17/-1713/1/8/
!!!OCY: Italia
**kern	**kern	**kern	**kern
*clefC	*clefC	*clefG	*clefG
*k[b-]	*k[b-]	*k[b-]	*k[b-]
*F:	*F:	*F:	*F:
*M6/8	*M6/8	*M6/8	*M6/8
=1	=1	=1	=1
2.r	2.r	2.r	8r
.	.	.	8f
.	.	.	8f
.	.	.	8g
.	.	.	8g
.	.	.	8g
=2	=2	=2	=2
2.r	2.r	2.r	8a
.	.	.	8a
.	.	.	8a
.	.	.	8b-
.	.	.	16cc
.	.	.	16b-
.	.	.	16a
.	.	.	16g
=3	=3	=3	=3
2.r	2.r	8r	8f
.	.	8f	4.ff
.	.	8f	.
.	.	8g	.
.	.	8g	16gg
.	.	.	16ff
.	.	8g	8ee
=4	=4	=4	=4
2.r	2.r	8a	8ff
.	.	8a	8cc
.	.	8a	8cc
.	.	8b-	8dd
.	.	16cc	16ee-
.	.	16b-	16dd
.	.	16a	16cc
.	.	16g	16b-
=5	=5	=5	=5
8r	8r	8f	8a
8F	8F	4.ff	8aa
8F	8F	.	8aa
8G	8G	.	4gg
8G	8G	16gg	.
.	.	16ff	.
8G	8G	8ee	8gg
=6	=6	=6	=6
8A	8A	4ff	8cc
8A	8A	.	4.ff
8A	8A	8ccc	.
8B-	8B-	4bb-	.
8c	16c	.	4ee
.	16B-	.	.
8C	16A	8bb-	.
.	16G	.	.
=7	=7	=7	=7
4F	8F	8aa	4ff
.	8A	4.ff	.
8F	8F	.	8aa
4C	8c	.	4gg
.	8E	[4ee	.
8C	8C	.	8gg
=8	=8	=8	=8
8D	8D	8ee]	4ff
8BB	8BB	4.dd	.
8GG	8GG	.	8ff
4C	8C	.	8ee
.	8E	[4cc	8gg
8C	8C	.	8gg
=9	=9	=9	=9
4F	8F	8cc]	8aa
.	8A	4.ff	8aa
8F	8F	.	8aa
8G	8G	.	8bb
8c	8c	8ee	[4ccc
8E	8E	8gg	.
=10	=10	=10	=10
8F	8F	8aa	8ccc]
8G	8G	4dd	4bb
8GG	8GG	.	.
8C	8C	8ee	4.ccc
[4c	[4c	8cc	.
.	.	8cc	.
=11	=11	=11	=11
8c]	8c]	8dd	2r
4.B-	4.B-	8dd	.
.	.	8dd	.
.	.	8ee	.
8A	8A	[4ff	8ccc
8F	8F	.	8aa
=12	=12	=12	=12
8G	8G	8ff]	8bb-
8c	8c	8ee	4.gg
8C	8C	8cc	.
4F	8F	[4.aa	.
.	8A	.	8ff
8AA	8AA	.	8cc
=13	=13	=13	=13
4BB-	8BB-	8aa]	8dd
.	8D	8gg	4.bb-
8BB-	8BB-	8dd	.
8C	8C	8ee	.
8c	8c	[4ff	8aa
8B-	8B-	.	8gg
=14	=14	=14	=14
8c	8c	8ff]	8aa
4C	4C	4ee	4gg
4F	8F	8ff	4ff
.	8A	[4cc	.
8AA	8AA	.	8cc
=15	=15	=15	=15
4BB-	8BB-	8cc]	4dd
.	8D	8f	.
8BB-	8BB-	4b-	8dd
8C	8C	.	8e
8F	8F	8a	[4f
8AA	8AA	8cc	.
=16	=16	=16	=16
8BB-	8BB-	8dd	8f]
4C	4C	4g	4e
4.FF	4.FF	4.f	4.f
=17	=17	=17	=17
4.f	2.r	2.r	16ff
.	.	.	16ee
.	.	.	16ff
.	.	.	16gg
.	.	.	16aa
.	.	.	16ff
4.e	.	.	16gg
.	.	.	16ff
.	.	.	16gg
.	.	.	16aa
.	.	.	16bb-
.	.	.	16gg
=18	=18	=18	=18
4d	2.r	16ff	8aa
.	.	16ee	.
.	.	16ff	4.ff
.	.	16gg	.
8A	.	16aa	.
.	.	16ff	.
8B-	.	16gg	.
.	.	16ff	.
8G	.	16gg	4ee
.	.	16aa	.
8c	.	16bb-	.
.	.	16gg	.
=19	=19	=19	=19
4.F	2.r	8aa	8ff
.	.	4.ff	8f
.	.	.	8f
4.C	.	.	8g
.	.	4ee	8g
.	.	.	8g
=20	=20	=20	=20
8r	8r	8ff	8a
8F	8F	8cc	8a
8F	8F	4f	8a
8G	8G	.	8b-
8G	8G	8e	8b-
8G	8G	8g	8b-
=21	=21	=21	=21
8A	8A	4c	8cc
8A	8A	.	4.ff
8A	8A	8r	.
8B-	8B-	4.gg	.
8c	16c	.	16ee
.	16B-	.	16dd
8C	16A	.	16cc
.	16G	.	16b-
=22	=22	=22	=22
4F	4F	8aa	8a
.	.	8a	8f
8F	8F	8f	8a
4E	4E	4cc	8g
.	.	.	8c
8E	8E	8gg	[8cc
=23	=23	=23	=23
8D	8D	16ff	8cc]
.	.	16ee	.
8G	8G	16dd	16dd
.	.	16ee	16cc
8GG	8GG	8ff	8b
4C	4C	8ee	4cc
.	.	8cc	.
8C	8C	[8ccc	8ee
=24	=24	=24	=24
4D	4D	8ccc]	8ff
.	.	8ff	8dd
8E	8E	4bb-	8gg
4F	4F	.	8cc
.	.	4aa	[4ff
8AA	8AA	.	.
=25	=25	=25	=25
4BB	4BB	4.gg	8ff]
.	.	.	16gg
.	.	.	16ff
8C#	8C#	.	4ee
4D	4D	4ff	.
.	.	.	8a
8F	8F	8aa	[8dd
=26	=26	=26	=26
8G	8G	8bb-	8dd]
8A	8A	4ee	4cc#
8AA	8AA	.	.
8D	8D	8dd	8dd
8d	8d	8ff	[4b-
8e	8e	8gg	.
=27	=27	=27	=27
4f	4f	4cc	8b-]
.	.	.	4.a
8A	8A	8cc	.
4B-	4B-	4dd	.
.	.	.	8g
8B	8B	8dd	8f
=28	=28	=28	=28
4c	4c	4g	8e
.	.	.	8gg
8c	8c	8cc	4aa
4B	4B	4dd	.
.	.	.	8dd
8G	8G	8b	[8gg
=29	=29	=29	=29
4A	4A	4cc	8gg]
.	.	.	8cc
8F	8F	8a	4ff
8G	8G	8b	.
8A	8A	[4cc	8ee
8E	8E	.	8gg
=30	=30	=30	=30
8F	8F	8cc]	8aa
8G	8G	4b	4dd
8GG	8GG	.	.
8C	8C	4cc	8ee
[4c	[4c	.	8cc
.	.	8r	8cc
=31	=31	=31	=31
8c]	8c]	2r	8dd
4.B-	4.B-	.	8dd
.	.	.	8dd
.	.	.	8ee
8A	8A	8cc	[4ff
8F	8F	8cc	.
=32	=32	=32	=32
8B-	8B-	8dd	8ff]
8B	8B	8dd	4.gg
8G	8G	8dd	.
8B	8B	8ee	.
[4f	[4f	16ff	8aa
.	.	16gg	.
.	.	16aa	8ff
.	.	16ff	.
=33	=33	=33	=33
8f]	8f]	8gg	8bb-
4e	4e	4.gg	8gg
.	.	.	8ccc
8f	8f	.	4.aa
16F	16F	[4ff	.
16G	16G	.	.
16A	16A	.	.
16B-	16B-	.	.
=34	=34	=34	=34
8c	8c	8ff]	4.gg
8C	8C	4.ee	.
8C	8C	.	.
8D	8D	.	4.ff
16D	16D	[4dd	.
16E	16E	.	.
16F	16F	.	.
16G	16G	.	.
=35	=35	=35	=35
8A	8A	8dd]	4.ee
8AA	8AA	4.cc	.
8AA	8AA	.	.
8BB-	8BB-	.	4.dd
16BB-	16BB-	[4b-	.
16C	16C	.	.
16D	16D	.	.
16E	16E	.	.
=36	=36	=36	=36
8F	8F	8b-]	4.cc
8FF	8FF	4.a	.
8FF	8FF	.	.
8GG	8GG	.	4.b-
8GG	8GG	[4g	.
8GG	8GG	.	.
=37	=37	=37	=37
8AA	8AA	8g]	4a
8AA	8AA	4.f	.
8AA	8AA	.	8cc
8BB-	8BB-	.	8dd
4C	4C	4e	4g
=38	=38	=38	=38
4FF	4FF	8f	4f
.	.	4.a	.
8F	8F	.	8cc
8D	8D	.	4b-
8E	8E	[4g	.
8C	8C	.	8cc
=39	=39	=39	=39
4F	4F	8g]	4a
.	.	4.f	.
8AA	8AA	.	8cc
8BB-	8BB-	.	8dd
4C	4C	4e	4g
=40	=40	=40	=40
4.FF	4.FF	4.f	4.f
4.r	4.r	4.r	4.r
==	==	==	==
*-	*-	*-	*-
!!!RWG: This file only contains pitch and duration data.
!!!RWG: Transposing instruments are not transposed.
!!!RWG: Durations of rests and tied notes may be interpreted.
!!!RWG: Key is interpreted using the Humdrum key tool.
!!!SCA: 
!!!YOR: Chrysander Edition
!!!AGN: chamber
!!!AFT: stage1
!!!ENC: F. Bennion
!!!END: 1997/04/15
!!!AST: baroque
!!!YEC: Copyright 1994, Center for Computer Assisted Research in the Humanities
!!!YEM: Rights to all derivative electronic formats reserved.
!!!YEM: Refer to licensing agreement for further details.
!!!YEN: United States of America
!!!EED: W.B. Hewlett
!!!KEY: 1983603007
!!!EMD: Converted from MuseData to Humdrum Aug 9, 1999, by Bret Aarden using muse2kern.
!!!VTS: 13387165
